X:1
T:Title
%%score { ( 1 3 4 7 ) | ( 2 5 6 ) }
L:1/8
M:4/4
K:Ab
V:1 treble nm="Grand Piano"
V:3 treble 
V:4 treble 
V:7 treble 
V:2 bass 
V:5 bass 
V:6 bass 
V:1
 z4 z2 z[Q:1/4=85] E | c>c BA C2 EE | F>A GF G2 z E | d>d cB F2 GG | B>A cA E2 z E | %5
 A>A z z/ G/ GFDF | _GF d>c B2 z B |[M:17/16] B>B[=DFc][DF=d]e>e[D_Gd]3/2[DGc] | %8
[M:33/32] B/-<B/ z/4 z/4 z/ A/4-A/4-A/-<A/ z/ [G,E]/4-[G,E]/4-[G,E]/4-[G,E]/4-[G,E]/-<[G,E]/[Gd]/[Gc]/-<[Gc]/[EGB]3/4 | %9
[M:4/4] (3A,A,A, z2 z2 (3ABc | G3- G3/4 z/4 [GB]2- [GB]3/4 z/4 z | z4 z2 _c2- | c3/4 z/4 z z2 z4 | %13
 e2- e3/4 z/4 z [E=A]2- [EA]3/4 z/4 z | z2 c2 [Fd]2- [Fd]3/4 z/4 z | z2 z z/ =d/- d/4 z/4 z/ z z2 | %16
 (3:2:2a3 [EAce]3- [EAce]3/4 z/4 z (3ABc | (3:2:2[Ee]6 [G,-D-E]6 | %18
[M:7/8] [G,C-DE-A-]/>[CEA]/-[CEA]-[CEA]- [CEA]- [CEA]2- [CEA]/4 z/4 z/ |] %19
V:2
 z8 | A,,2 [E,A,C]2 E,,2 [E,A,C]2 | A,,2 [E,A,C]2 E,,2 [E,G,]2 | E,,2 [E,G,D]2 B,,2 [E,G,D]2 | %4
 A,,2 [E,A,C]2 C,2 [E,A,]2 | A,A,[A,C]A, [A,D][A,D]A,[A,D] | C,2 [F,=A,E]2 B,,2 F,2 | %7
[M:17/16] [A,,A,][A,,A,][A,,A,][A,,A,][G,,G,][G,,G,][=A,,_G,]3/2[A,,G,] | %8
[M:33/32] z/4 z/4 z/ G/-<G/ z/4 z/4 z/4 z/4 z/ F/E,/4-E,/4-E,/4-E,/4-E,/-<E,/[K:treble]F/E/-<E/D3/4 | %9
[M:4/4][K:bass] z2 (3A,,A,,A,, z2 (3[A,CE-][A,CE][A,CE] | %10
 z2 (3:2:4E,E,/d/-[E,d-] d3/4 z/4 z (3B,,G,,F,, | z4 D2- D3/4 z/4 z | z8 | E2- E3/4 z/4 z z4 | %14
 (3D,D,D, z2 (3[B,,B,]B,,B,, z2 | z2 [E,A,E]>[E,A,E]- [E,A,E]/4 z/4 z/ z z2 | %16
 [Ace]2- [Ace]/4 z/4 z/ z [F,,F,]4- | [F,,F,]3/4 z/4 z z2 z4 |[M:7/8] z7 |] %19
V:3
 x8 | x8 | z4 z2 D2 | x8 | z4 z2 C2 | CC A2 z4 | z4 z2 B,2 | %7
[M:17/16] [=DF][DF] z/ z/ z [EG][EG] z/ z/ z/ z | %8
[M:33/32] E/4-E/4-E/4-E/4-E/-<E/[A,B,=D]/4-[A,B,D]/4-[A,B,D]/4-[A,B,D]/4-[A,B,D]/-<[A,B,D]/ z/4 z/4 z/4 z/4 z/4 z/4 z/4 z/4 z/4 z/4 z/4 z/4 z/4 z/4 z/4 z/ | %9
[M:4/4] [CE]2- [CE]3/4 z/4 z z4 | (3e-[De-][De-] e-e/4 z/4 z/ (3[DE][DE][DE] z2 | %11
 z2 (3EGA z2 (3z G,G, | z2 (3A,A,A, z2 (3_G,G,G, | z2 (3c-[=A,c][B,EB] z2 (3F-[FG][B,F=A] | %14
 (3[B,F-B-][B,F-B-][B,F-B-] [F-B]/>F/-F3/4 z/4 (3z B,B, z2 | z2 d3/2-d/4 z/4 z4 | %16
 z4 [CFAc]2- [CFAc]/4 z/4 z/ z | x8 |[M:7/8] x7 |] %19
V:4
 x8 | x8 | x8 | x8 | x8 | z2 z C z4 | x8 |[M:17/16] x17/2 |[M:33/32] x33/4 | %9
[M:4/4] z2 (3[A,C-E][A,CF][A,CG] [CB]2- [CB]/4 z/4 z/ z | z2 (3DDD z2 (3[DE][DE][DE] | %11
 [DE]2- [DE]3/4 z/4 z B2- B3/4 z/4 z | z4 (3[_G,A,-E-][G,A,-E-][G,A,-E-] [A,E]3/2-[A,-E]/4A,/4- | %13
 A,3/2-A,/4 z/4 z2 z4 | z2 (3z =A,A, z2 (3B,B,B, | (3c3 z z2 (3:2:2e3 G3 | x8 | x8 |[M:7/8] x7 |] %19
V:5
 x8 | x8 | x8 | x8 | x8 | z2 =E,2 F,4 | x8 |[M:17/16] x17/2 | %8
[M:33/32] [B,,G,B,]/4-[B,,G,B,]/4-[B,,G,B,]/4-[B,,G,B,]/4-[B,,G,B,]/-<[B,,G,B,]/B,,/4-B,,/4-B,,/4-B,,/4-B,,/-<B,,/ z/4 z/4 z/4 z/4 z/4 z/4 z/4 z/4[K:treble] z/4 z/4 z/4 z/4 z/4 z/4 z/4 z/ | %9
[M:4/4][K:bass] (3A,,A,,A,, z2 (3A,A,A, z2 | z4 E,2- E,3/4 z/4 z | %11
 z2 (3[E,G,D-][E,G,D][E,G,D] z2 (3[E,G,D-][E,D-][E,D-] | D3/4 z/4 z (3A,,A,,A,, z2 (3_G,,G,,G,, | %13
 z2 (3[F,=A,E-][F,E]F, z2 (3[E,-A,][E,B,]E, | z2 (3[C,=A,]C,C, z2 (3B,,B,,B,, | %15
 (3[E,A,E]3 z z2 (3:2:2[E,G,E]3 [E,B,D]3- | %16
 [A,,-E,A,-B,C-D]/>[A,,A,C]/-[A,,A,C]- [C,,A,,C,A,C]2- [C,,A,,C,A,C]/4 z/4 z/ z (3A,B,C | %17
 (3:2:2[E,,E,]6 [E,,E,]6- | %18
[M:7/8] [E,,A,,-E,A,-]/>[A,,A,]/-[A,,A,]-[A,,A,]- [A,,A,]- [A,,A,]2- [A,,A,]/4 z/4 z/ |] %19
V:6
 x8 | x8 | x8 | x8 | x8 | [A,,-E,]2 A,,4 D,2 | x8 |[M:17/16] x17/2 |[M:33/32] x6[K:treble] x9/4 | %9
[M:4/4][K:bass] x8 | (3[E,D]E,E, z2 (3E,,=A,,C, z2 | (3E,E,E, z2 (3[E,G,]E,E, z2 | %12
 (3[A,,A,]A,,A,, z2 (3_G,,G,,G,, z2 | (3[F,=A,]F,F, z2 (3F,F,F, z2 | x8 | x8 | x8 | x8 | %18
[M:7/8] x7 |] %19
V:7
 x8 | x8 | x8 | x8 | x8 | x8 | x8 |[M:17/16] x17/2 |[M:33/32] x33/4 |[M:4/4] x8 | x8 | %11
 (3G,G,G, z2 (3z G,G, z2 | (3[D=c]-[A,D-c-][A,D-c-] [Dc]2- [Dc-]/<c/- c2- c3/4 z/4 | %13
 (3z =A,A, z2 (3CCC z2 | x8 | x8 | x8 | x8 |[M:7/8] x7 |] %19

